svgs/sharp-regular/hand-back-point-up.svg

<svg xmlns="http://www.w3.org/2000/svg" viewBox="0 0 448 512"><!--! Font Awesome Pro 6.6.0 by @fontawesome - https://fontawesome.com License - https://fontawesome.com/license (Commercial License) Copyright 2024 Fonticons, Inc. --><path d="M104 0L80 0l0 24 0 227.2-56.1 51L16 309.4 16 320l0 38.5c0 54.1 28.7 104.1 75.4 131.3l2.6 1.5c23.2 13.6 49.7 20.7 76.6 20.7L296 512c66.3 0 120-53.7 120-120l0-8 0-96 0-40 0-24-24 0-40 0 0-8 0-24-24 0-48 0 0-8 0-24-24 0-48 0 0-136 0-24L184 0 104 0zM232 240l24 0 48 0 0 8 0 24 24 0 40 0 0 16 0 96 0 8c0 39.8-32.2 72-72 72l-125.4 0c-18.4 0-36.5-4.9-52.4-14.2l-11.7 20 11.7-20-2.6-1.5C83.6 429.7 64 395.5 64 358.5l0-27.9 32-29.1L96 344l0 16 32 0 0-16 0-71.6 0-8.4 0-2.2 0-13.8 0-200 32 0 0 136 0 24 24 0 48 0 0 8 0 24z"/></svg>

<svg xmlns="http://www.w3.org/2000/svg" viewBox="0 0 448 512"><!--! Font Awesome Pro 6.4.0 by @fontawesome - https://fontawesome.com License - https://fontawesome.com/license (Commercial License) Copyright 2023 Fonticons, Inc. --><path d="M104 0H80V24 251.2l-56.1 51L16 309.4V320v38.5c0 54.1 28.7 104.1 75.4 131.3l2.6 1.5c23.2 13.6 49.7 20.7 76.6 20.7H296c66.3 0 120-53.7 120-120v-8V288 248 224H392 352v-8V192H328 280v-8V160H256 208V24 0H184 104zM232 240h24 48v8 24h24 40v16 96 8c0 39.8-32.2 72-72 72H170.6c-18.4 0-36.5-4.9-52.4-14.2l-11.7 20 11.7-20-2.6-1.5C83.6 429.7 64 395.5 64 358.5V330.6l32-29.1V344v16h32V344 272.4 264v-2.2V248 48h32V184v24h24 48v8 24z"/></svg>
